aliba_games/img/icon-american-express.svg

<svg width="47" height="16" viewBox="0 0 47 16" fill="none" xmlns="http://www.w3.org/2000/svg">
<g style="mix-blend-mode:luminosity">
<path d="M4.93994 3.94468H6.54629L5.74312 1.89893L4.93994 3.94468Z" fill="#2FABF7"/>
<path d="M24.8733 2.19123C24.7272 2.11816 24.5082 2.11816 24.2892 2.11816H22.8289V3.28717H24.2892C24.5082 3.28717 24.7272 3.28717 24.8733 3.2141C25.0193 3.14104 25.0923 2.92185 25.0923 2.70267C25.1653 2.41041 25.0193 2.26429 24.8733 2.19123Z" fill="#228FE0"/>
<path d="M40.4987 0V0.876753L40.0607 0H36.6289V0.876753L36.1908 0H31.5178C30.7146 0 30.0575 0.146126 29.4734 0.438377V0H26.1877V0.438377C25.8226 0.146126 25.3845 0 24.8003 0H13.0448L12.2416 1.82657L11.4385 0H7.71465V0.876753L7.27655 0H4.13687L2.67656 3.43395L0.997192 7.23321H2.67656H4.721L5.15909 6.06421H6.18132L6.61941 7.23321H10.8543V6.35646L11.2194 7.23321H13.3369L13.7019 6.35646V7.23321H23.8511V5.33358H23.9972C24.1432 5.33358 24.1432 5.33358 24.1432 5.55277V7.16015H29.4003V6.72177C29.8384 6.94096 30.4956 7.16015 31.3718 7.16015H33.5622L34.0003 5.99114H35.0226L35.4607 7.16015H39.6956V6.06421L40.3527 7.16015H43.7845V0H40.4987ZM15.8194 6.13727H14.5781V2.11882L12.8258 6.13727H11.7305L9.97814 2.11882V6.13727H7.4956L6.98449 5.04133H4.50195L4.06386 6.21033H2.67656L4.86703 1.02288H6.69243L8.73687 5.91808V1.02288H10.7083L12.3146 4.52989L13.775 1.02288H15.8194V6.13727ZM20.7845 2.11882H17.9369V3.06863H20.7115V4.09151H17.9369V5.11439H20.7845V6.21033H16.6956V1.02288H20.7845V2.11882ZM26.2607 4.23764C26.4067 4.52989 26.4797 4.74908 26.4797 5.18745V6.21033H25.2384V5.55277C25.2384 5.26052 25.2384 4.82214 25.0194 4.52989C24.8004 4.3107 24.5813 4.3107 24.1432 4.3107H22.8289V6.21033H21.5877V1.02288H24.3623C25.0194 1.02288 25.4575 1.02288 25.8226 1.24207C26.1877 1.46125 26.4067 1.82657 26.4067 2.41107C26.4067 3.21476 25.8956 3.65314 25.5305 3.79926C25.8956 3.87232 26.1146 4.09151 26.2607 4.23764ZM28.4511 6.13727H27.2099V0.949816H28.4511V6.13727ZM42.8353 6.13727H41.0829L38.7464 2.26494V6.13727H36.2638L35.8257 5.04133H33.2702L32.8321 6.21033H31.4448C30.8607 6.21033 30.1305 6.06421 29.6924 5.62583C29.2543 5.18745 29.0353 4.60295 29.0353 3.65314C29.0353 2.92251 29.1813 2.19188 29.6924 1.60738C30.0575 1.169 30.7146 1.02288 31.5178 1.02288H32.6861V2.11882H31.5178C31.0797 2.11882 30.8607 2.19188 30.5686 2.41107C30.3496 2.63026 30.2035 3.06864 30.2035 3.58007C30.2035 4.16458 30.2765 4.52989 30.5686 4.82214C30.7876 5.04133 31.0797 5.11439 31.4448 5.11439H31.9559L33.6353 1.09594H35.4607L37.5051 5.99114V1.09594H39.3305L41.448 4.67601V1.09594H42.6892V6.13727H42.8353Z" fill="#0571C1"/>
<path d="M33.7084 3.94517H35.3877L34.5846 1.89941L33.7084 3.94517Z" fill="#228FE0"/>
<path d="M21.2956 14.4654V10.3008L19.3972 12.3465L21.2956 14.4654Z" fill="#228FE0"/>
<path d="M13.4828 10.812V11.7618H16.1844V12.7847H13.4828V13.8806H16.4764L17.8637 12.3463L16.5495 10.812H13.4828Z" fill="#2FABF7"/>
<path d="M24.0702 10.812H22.5369V12.1271H24.1432C24.5813 12.1271 24.8734 11.908 24.8734 11.4696C24.8004 11.0312 24.5083 10.812 24.0702 10.812Z" fill="#228FE0"/>
<path d="M46.6321 12.0544V8.7666H45.7559H43.5654C42.9083 8.7666 42.3972 8.91273 42.0321 9.20498V8.7666H38.6734C38.1622 8.7666 37.5051 8.91273 37.213 9.20498V8.7666H31.2988V9.20498C30.8607 8.83967 30.0575 8.7666 29.6924 8.7666H25.7495V9.20498C25.3845 8.83967 24.5083 8.7666 24.0702 8.7666H19.6892L18.667 9.86254L17.7178 8.7666H11.1464V15.9267H17.5718L18.594 14.8308L19.5432 15.9267H23.4861V14.2463H23.9972C24.5083 14.2463 25.1654 14.2463 25.6765 14.0271V15.9998H28.9622V14.1002H29.1083C29.3273 14.1002 29.3273 14.1002 29.3273 14.3194V15.9998H39.2575C39.9146 15.9998 40.5718 15.8537 40.9369 15.5614V15.9998H44.0765C44.7337 15.9998 45.3908 15.9267 45.8289 15.6345C46.5591 15.1961 46.9972 14.3924 46.9972 13.4426C46.9972 12.9312 46.8511 12.4197 46.6321 12.0544ZM23.9972 13.2234H22.5368V14.9769H20.2003L18.74 13.2965L17.2067 14.9769H12.3876V9.78948H17.2797L18.74 11.4699L20.2734 9.78948H24.1432C25.0924 9.78948 26.1876 10.0817 26.1876 11.4699C26.1146 12.9312 25.0924 13.2234 23.9972 13.2234ZM31.2988 12.9312C31.4448 13.1504 31.5178 13.4426 31.5178 13.881V14.9039H30.2765V14.2463C30.2765 13.9541 30.2765 13.4426 30.0575 13.2234C29.9115 13.0042 29.6194 13.0042 29.1813 13.0042H27.867V14.9039H26.6257V9.71642H29.4003C29.9845 9.71642 30.4956 9.71642 30.8607 9.93561C31.2257 10.1548 31.5178 10.5201 31.5178 11.1046C31.5178 11.9083 31.0067 12.3467 30.6416 12.4928C31.0067 12.6389 31.2257 12.7851 31.2988 12.9312ZM36.3369 10.8124H33.4892V11.7622H36.2638V12.7851H33.4892V13.8079H36.3369V14.9039H32.248V9.71642H36.3369V10.8124ZM39.4035 14.9039H37.067V13.8079H39.4035C39.6226 13.8079 39.7686 13.8079 39.9146 13.6618C39.9876 13.5887 40.0607 13.4426 40.0607 13.2965C40.0607 13.1504 39.9876 13.0042 39.9146 12.9312C39.8416 12.8581 39.6956 12.7851 39.4765 12.7851C38.3083 12.712 36.921 12.7851 36.921 11.1777C36.921 10.447 37.3591 9.64335 38.6734 9.64335H41.0829V10.8854H38.8194C38.6003 10.8854 38.4543 10.8854 38.3083 10.9585C38.1622 11.0315 38.1622 11.1777 38.1622 11.3238C38.1622 11.543 38.3083 11.616 38.4543 11.6891C38.6003 11.7622 38.7464 11.7622 38.8924 11.7622H39.5496C40.2067 11.7622 40.6448 11.9083 40.9369 12.2005C41.1559 12.4197 41.3019 12.7851 41.3019 13.2965C41.3019 14.3924 40.6448 14.9039 39.4035 14.9039ZM45.6829 14.3924C45.3908 14.6847 44.8797 14.9039 44.1496 14.9039H41.813V13.8079H44.1496C44.3686 13.8079 44.5146 13.8079 44.6607 13.6618C44.7337 13.5887 44.8067 13.4426 44.8067 13.2965C44.8067 13.1504 44.7337 13.0042 44.6607 12.9312C44.5877 12.8581 44.4416 12.7851 44.2226 12.7851C43.0543 12.712 41.667 12.7851 41.667 11.1777C41.667 10.447 42.1051 9.64335 43.4194 9.64335H45.8289V10.8854H43.6384C43.4194 10.8854 43.2734 10.8854 43.1273 10.9585C42.9813 11.0315 42.9813 11.1777 42.9813 11.3238C42.9813 11.543 43.0543 11.616 43.2734 11.6891C43.4194 11.7622 43.5654 11.7622 43.7115 11.7622H44.3686C45.0257 11.7622 45.4638 11.9083 45.7559 12.2005C45.8289 12.2005 45.8289 12.2736 45.8289 12.2736C46.048 12.5659 46.121 12.9312 46.121 13.2965C46.121 13.7349 45.975 14.1002 45.6829 14.3924Z" fill="#0571C1"/>
<path d="M29.9844 10.9598C29.8383 10.8867 29.6193 10.8867 29.4002 10.8867H27.9399V12.0557H29.4002C29.6193 12.0557 29.8383 12.0557 29.9844 11.9827C30.1304 11.9096 30.2034 11.6904 30.2034 11.4712C30.2764 11.179 30.1304 11.0328 29.9844 10.9598Z" fill="#228FE0"/>
<path d="M24.8734 2.19171C24.7274 2.11865 24.5083 2.11865 24.2893 2.11865H22.829V3.28765H24.2893C24.5083 3.28765 24.7274 3.28766 24.8734 3.21459C25.0194 3.14153 25.0924 2.92234 25.0924 2.70315C25.1655 2.4109 25.0194 2.26478 24.8734 2.19171Z" fill="#228FE0"/>
<path d="M33.7084 3.94517H35.3877L34.5846 1.89941L33.7084 3.94517Z" fill="#228FE0"/>
<path d="M21.2956 14.4654V10.3008L19.3972 12.3465L21.2956 14.4654Z" fill="#228FE0"/>
<path d="M24.0702 10.812H22.5369V12.1271H24.1432C24.5813 12.1271 24.8734 11.908 24.8734 11.4696C24.8004 11.0312 24.5083 10.812 24.0702 10.812Z" fill="#228FE0"/>
<path d="M29.9844 10.9593C29.8383 10.8862 29.6193 10.8862 29.4002 10.8862H27.9399V12.0552H29.4002C29.6193 12.0552 29.8383 12.0552 29.9844 11.9822C30.1304 11.9091 30.2034 11.6899 30.2034 11.4707C30.2764 11.1785 30.1304 11.0324 29.9844 10.9593Z" fill="#228FE0"/>
<path d="M23.5591 14.7592L22.5368 13.6633V14.9053H20.1273L18.667 13.2249L17.0606 14.9053H12.2416V9.79095H17.1337L18.667 11.4714L19.3972 10.5946L17.5718 8.76807H11.1464V15.9282H17.5718L18.667 14.8323L19.6162 15.9282H23.5591V14.7592Z" fill="#2FABF7"/>
<path d="M15.9654 7.16015L15.0162 6.13727H14.5781V5.69889L13.4829 4.60295L12.7527 6.13727H11.7305L9.97814 2.11882V6.13727H7.4956L6.98449 5.04133H4.50195L3.99084 6.13727H2.67656L4.86703 1.02288H6.69243L8.73687 5.91808V1.02288H9.83211L8.80989 0H7.71465V0.876753L7.34957 0H4.13687L2.67656 3.43395L0.997192 7.16015H2.67656H4.79401L5.23211 6.06421H6.25433L6.76544 7.16015H10.8543V6.28339L11.2194 7.16015H13.3369L13.7019 6.28339V7.16015H15.9654Z" fill="#2FABF7"/>
<path d="M12.6076 3.7984L11.4386 2.62939L12.3154 4.52902L12.6076 3.7984Z" fill="#2FABF7"/>
<path d="M45.8288 15.5614C46.486 15.123 46.9241 14.3924 46.9971 13.5887L45.9748 12.5658C46.0479 12.785 46.1209 13.0042 46.1209 13.2964C46.1209 13.7348 45.9748 14.1001 45.6828 14.3924C45.3907 14.6846 44.8796 14.9038 44.1495 14.9038H41.8129V13.8079H44.1495C44.3685 13.8079 44.5145 13.8079 44.6606 13.6618C44.7336 13.5887 44.8066 13.4426 44.8066 13.2964C44.8066 13.1503 44.7336 13.0042 44.6606 12.9311C44.5875 12.8581 44.4415 12.785 44.2225 12.785C43.0542 12.7119 41.6669 12.785 41.6669 11.1776C41.6669 10.447 42.105 9.78943 43.2002 9.6433L42.3971 8.83962C42.251 8.91268 42.178 8.98574 42.105 8.98574V8.54736H38.7463C38.2352 8.54736 37.578 8.69349 37.286 8.98574V8.54736H31.2987V8.98574C30.8606 8.62042 30.0574 8.54736 29.6923 8.54736H25.7495V8.98574C25.3844 8.62042 24.5082 8.54736 24.0701 8.54736H19.6892L18.6669 9.6433L17.7177 8.54736H16.9146L19.105 10.7392L20.2003 9.57024H24.0701C25.0193 9.57024 26.1145 9.86249 26.1145 11.2507C26.1145 12.7119 25.0923 13.0042 23.9971 13.0042H22.5368V14.1001L23.632 15.1961V14.1001H23.9971C24.5082 14.1001 25.1653 14.1001 25.6764 13.8809V15.8536H28.9622V13.954H29.1082C29.3272 13.954 29.3272 13.954 29.3272 14.1732V15.8536H39.2574C39.9145 15.8536 40.5717 15.7075 40.9368 15.4153V15.8536H44.0764C44.6606 15.9267 45.3177 15.8536 45.8288 15.5614ZM31.2987 12.9311C31.4447 13.1503 31.5177 13.4426 31.5177 13.8809V14.9038H30.2764V14.2463C30.2764 13.954 30.2764 13.4426 30.0574 13.2234C29.9114 13.0042 29.6193 13.0042 29.1812 13.0042H27.8669V14.9038H26.6257V9.71637H29.4003C29.9844 9.71637 30.4955 9.71637 30.8606 9.93556C31.2257 10.1547 31.5177 10.5201 31.5177 11.1046C31.5177 11.9082 31.0066 12.3466 30.6415 12.4928C31.0066 12.6389 31.2257 12.785 31.2987 12.9311ZM36.3368 10.8123H33.4891V11.7621H36.2637V12.785H33.4891V13.8079H36.3368V14.9038H32.2479V9.71637H36.3368V10.8123ZM39.4034 14.9038H37.0669V13.8079H39.4034C39.6225 13.8079 39.7685 13.8079 39.9145 13.6618C39.9876 13.5887 40.0606 13.4426 40.0606 13.2964C40.0606 13.1503 39.9876 13.0042 39.9145 12.9311C39.8415 12.8581 39.6955 12.785 39.4764 12.785C38.3082 12.7119 36.9209 12.785 36.9209 11.1776C36.9209 10.447 37.359 9.6433 38.6733 9.6433H41.0828V10.8854H38.8193C38.6003 10.8854 38.4542 10.8854 38.3082 10.9584C38.1622 11.0315 38.1622 11.1776 38.1622 11.3237C38.1622 11.5429 38.3082 11.616 38.4542 11.6891C38.6003 11.7621 38.7463 11.7621 38.8923 11.7621H39.5495C40.2066 11.7621 40.6447 11.9082 40.9368 12.2005C41.1558 12.4197 41.3018 12.785 41.3018 13.2964C41.3018 14.3924 40.6447 14.9038 39.4034 14.9038Z" fill="#228FE0"/>
<path d="M42.9082 11.3246C42.9082 11.5438 42.9812 11.6169 43.2003 11.6899C43.3463 11.763 43.4924 11.763 43.6384 11.763H44.2956C44.7337 11.763 45.0257 11.836 45.3178 11.9822L44.2225 10.8862H43.5654C43.3463 10.8862 43.2003 10.8862 43.0542 10.9593C42.9812 11.0324 42.9082 11.1785 42.9082 11.3246Z" fill="#228FE0"/>
<path d="M40.3527 6.94043L40.4987 7.15962H40.5718L40.3527 6.94043Z" fill="#228FE0"/>
<path d="M36.3368 2.92139L37.5789 5.91696V4.16345L36.3368 2.92139Z" fill="#228FE0"/>
<path d="M23.8511 5.33327H23.9971C24.1432 5.33327 24.1432 5.33327 24.1432 5.55246V7.15984H29.4003V6.72146C29.8384 6.94065 30.4956 7.15984 31.3718 7.15984H33.5622L34.0003 5.99083H35.0225L35.4606 7.15984H39.6956V6.42921L38.6733 5.40633V6.21002H36.1908L35.8257 5.04102H33.2702L32.8321 6.21002H31.4448C30.8606 6.21002 30.1305 6.0639 29.6924 5.62552C29.2543 5.18714 29.0352 4.60264 29.0352 3.65283C29.0352 2.9222 29.1813 2.19157 29.6924 1.60707C30.0575 1.16869 30.7146 1.02257 31.5178 1.02257H32.686V2.11851H31.5178C31.0797 2.11851 30.8606 2.19157 30.5686 2.41076C30.3495 2.62995 30.2035 3.06833 30.2035 3.57977C30.2035 4.16427 30.2765 4.52958 30.5686 4.82183C30.7876 5.04102 31.0797 5.11408 31.4448 5.11408H31.9559L33.6353 1.09563H34.3654L33.3432 0.0727539H31.4448C30.6416 0.0727539 29.9845 0.21888 29.4003 0.51113V0.0727539H26.1876V0.51113C25.8225 0.21888 25.3844 0.0727539 24.8003 0.0727539H13.0448L12.2416 1.89932L11.4384 0.0727539H8.22571L9.24793 1.09563H10.7082L11.9495 3.79895L12.3876 4.23733L13.7019 1.02257H15.7463V6.21002H14.5051V2.19157L13.2638 5.11408L15.3813 7.2329H23.7781L23.8511 5.33327ZM27.2098 1.02257H28.4511V6.21002H27.2098V1.02257ZM20.7844 2.11851H17.9368V3.06833H20.7114V4.0912H17.9368V5.11408H20.7844V6.21002H16.6956V1.02257H20.7844V2.11851ZM22.8289 6.13696H21.5876V0.949507H24.3622C25.0194 0.949507 25.4575 0.949507 25.8225 1.16869C26.1876 1.38788 26.4067 1.7532 26.4067 2.3377C26.4067 3.14139 25.8956 3.57976 25.5305 3.72589C25.8225 3.79895 26.0416 4.01814 26.1146 4.16427C26.2606 4.45652 26.3337 4.6757 26.3337 5.11408V6.13696H25.0924V5.47939C25.0924 5.18714 25.0924 4.74877 24.8733 4.45652C24.8003 4.31039 24.5813 4.31039 24.1432 4.31039H22.8289V6.13696Z" fill="#228FE0"/>
</g>
</svg>

<svg width="47" height="16" fill="none" xmlns="http://www.w3.org/2000/svg"><g style="mix-blend-mode:luminosity"><path d="M4.94 3.945h1.606l-.803-2.046-.803 2.046z" fill="#2FABF7"/><path d="M24.873 2.191c-.146-.073-.365-.073-.584-.073h-1.46v1.17h1.46c.22 0 .438 0 .584-.074.146-.073.22-.292.22-.511.072-.293-.074-.439-.22-.512z" fill="#228FE0"/><path d="M40.499 0v.877L40.06 0h-3.432v.877L36.19 0h-4.673c-.803 0-1.46.146-2.045.438V0h-3.285v.438C25.823.146 25.385 0 24.8 0H13.045l-.803 1.827L11.438 0H7.715v.877L7.277 0h-3.14l-1.46 3.434-1.68 3.8h3.724l.438-1.17h1.022l.438 1.17h4.235v-.878l.365.877h2.118l.365-.877v.877h10.15v-1.9h.145c.146 0 .146 0 .146.22V7.16H29.4v-.438c.438.219 1.096.438 1.972.438h2.19L34 5.991h1.023l.438 1.17h4.235V6.063l.657 1.096h3.431V0H40.5zm-24.68 6.137h-1.24V2.12l-1.753 4.018H11.73L9.978 2.12v4.018H7.496l-.512-1.096H4.502l-.438 1.17H2.677l2.19-5.188h1.825l2.045 4.895V1.023h1.971l1.607 3.507 1.46-3.507h2.044v5.114zm4.966-4.018h-2.848v.95h2.774v1.023h-2.774v1.022h2.848V6.21h-4.09V1.023h4.09v1.096zm5.476 2.119c.146.292.219.511.219.95V6.21h-1.242v-.657c0-.292 0-.73-.219-1.023-.219-.22-.438-.22-.876-.22H22.83v1.9h-1.241V1.023h2.774c.657 0 1.096 0 1.46.22.366.218.585.584.585 1.168 0 .804-.511 1.242-.877 1.388.366.073.585.293.73.439zm2.19 1.9H27.21V.95h1.241v5.187zm14.384 0h-1.752l-2.337-3.873v3.872h-2.482l-.438-1.096H33.27l-.438 1.17h-1.387c-.584 0-1.314-.147-1.753-.585-.438-.439-.657-1.023-.657-1.973 0-.73.146-1.461.657-2.046.366-.438 1.023-.584 1.826-.584h1.168v1.096h-1.168c-.438 0-.657.073-.95.292-.218.22-.365.658-.365 1.17 0 .584.073.949.366 1.241.219.22.51.292.876.292h.51l1.68-4.018h1.826l2.044 4.895V1.096h1.825l2.118 3.58v-3.58h1.241v5.041h.146z" fill="#0571C1"/><path d="M33.708 3.945h1.68L34.585 1.9l-.877 2.046zM21.296 14.465v-4.164l-1.899 2.046 1.899 2.118z" fill="#228FE0"/><path d="M13.483 10.812v.95h2.701v1.023h-2.701v1.096h2.993l1.388-1.535-1.315-1.534h-3.066z" fill="#2FABF7"/><path d="M24.07 10.812h-1.533v1.315h1.606c.438 0 .73-.219.73-.657-.073-.439-.365-.658-.803-.658z" fill="#228FE0"/><path d="M46.632 12.054V8.767h-3.066c-.658 0-1.169.146-1.534.438v-.438h-3.359c-.51 0-1.168.146-1.46.438v-.438h-5.914v.438c-.438-.365-1.241-.438-1.607-.438H25.75v.438c-.366-.365-1.242-.438-1.68-.438h-4.38l-1.023 1.096-.95-1.096h-6.57v7.16h6.425l1.022-1.096.95 1.096h3.942v-1.68h.511c.511 0 1.168 0 1.68-.22V16h3.285v-1.9h.146c.22 0 .22 0 .22.22V16h9.93c.657 0 1.314-.146 1.679-.439V16h3.14c.657 0 1.314-.073 1.752-.366.73-.438 1.168-1.242 1.168-2.191a2.8 2.8 0 0 0-.365-1.389zm-22.635 1.17h-1.46v1.753H20.2l-1.46-1.68-1.533 1.68h-4.82V9.789h4.893l1.46 1.68 1.533-1.68h3.87c.95 0 2.045.293 2.045 1.68-.073 1.462-1.096 1.754-2.19 1.754zm7.302-.293c.146.22.219.512.219.95v1.023h-1.242v-.658c0-.292 0-.803-.218-1.023-.146-.219-.439-.219-.877-.219h-1.314v1.9h-1.241V9.716H29.4c.585 0 1.096 0 1.46.22.366.219.658.584.658 1.169 0 .803-.511 1.242-.876 1.388.365.146.584.292.657.438zm5.038-2.119h-2.848v.95h2.775v1.023h-2.775v1.023h2.848v1.096h-4.089V9.716h4.089v1.096zm3.066 4.092h-2.336v-1.096h2.337c.219 0 .365 0 .51-.146a.558.558 0 0 0 .147-.366.558.558 0 0 0-.146-.365c-.073-.073-.22-.146-.438-.146-1.169-.073-2.556 0-2.556-1.607 0-.731.438-1.535 1.752-1.535h2.41v1.242h-2.264c-.219 0-.365 0-.51.074-.147.072-.147.219-.147.365 0 .219.146.292.292.365.146.073.292.073.438.073h.658c.657 0 1.095.146 1.387.438.219.22.365.585.365 1.097 0 1.095-.657 1.607-1.898 1.607zm6.28-.512c-.292.293-.803.512-1.533.512h-2.337v-1.096h2.337c.219 0 .365 0 .51-.146a.558.558 0 0 0 .147-.366.558.558 0 0 0-.146-.365c-.073-.073-.22-.146-.438-.146-1.169-.073-2.556 0-2.556-1.607 0-.731.438-1.535 1.752-1.535h2.41v1.242h-2.19c-.22 0-.366 0-.512.074-.146.072-.146.219-.146.365 0 .219.073.292.292.365.146.073.292.073.438.073h.658c.657 0 1.095.146 1.387.438.073 0 .073.074.073.074.219.292.292.657.292 1.023 0 .438-.146.803-.438 1.095z" fill="#0571C1"/><path d="M29.984 10.96c-.146-.073-.365-.073-.584-.073h-1.46v1.169h1.46c.22 0 .438 0 .584-.073.146-.073.22-.293.22-.512.072-.292-.074-.438-.22-.511zM24.873 2.192c-.146-.073-.365-.073-.584-.073h-1.46v1.169h1.46c.22 0 .438 0 .584-.073.146-.073.22-.293.22-.512.073-.292-.074-.438-.22-.511zM33.708 3.945h1.68L34.585 1.9l-.877 2.046zM21.296 14.465v-4.164l-1.899 2.046 1.899 2.118zM24.07 10.812h-1.533v1.315h1.606c.438 0 .73-.219.73-.657-.073-.439-.365-.658-.803-.658z" fill="#228FE0"/><path d="M29.984 10.96c-.146-.074-.365-.074-.584-.074h-1.46v1.17h1.46c.22 0 .438 0 .584-.074.146-.073.22-.292.22-.511.072-.293-.074-.439-.22-.512z" fill="#228FE0"/><path d="M23.56 14.76l-1.023-1.097v1.242h-2.41l-1.46-1.68-1.606 1.68h-4.82V9.791h4.893l1.533 1.68.73-.876-1.825-1.827h-6.426v7.16h6.426l1.095-1.096.95 1.096h3.942V14.76zM15.965 7.16l-.949-1.023h-.438V5.7l-1.095-1.096-.73 1.534H11.73L9.978 2.12v4.018H7.496l-.512-1.096H4.502L3.99 6.137H2.677l2.19-5.114h1.825l2.045 4.895V1.023h1.095L8.81 0H7.715v.877L7.35 0H4.137l-1.46 3.434L.997 7.16H4.794l.438-1.096h1.022l.511 1.096h4.09v-.877l.364.877h2.118l.365-.877v.877h2.263z" fill="#2FABF7"/><path d="M12.608 3.798l-1.17-1.169.877 1.9.293-.73z" fill="#2FABF7"/><path d="M45.829 15.561a2.673 2.673 0 0 0 1.168-1.972l-1.022-1.023c.073.219.146.438.146.73 0 .439-.146.804-.438 1.096-.292.293-.803.512-1.533.512h-2.337v-1.096h2.337c.218 0 .364 0 .51-.146a.558.558 0 0 0 .147-.366.558.558 0 0 0-.146-.365c-.074-.073-.22-.146-.439-.146-1.168-.073-2.555 0-2.555-1.607 0-.731.438-1.389 1.533-1.535l-.803-.803c-.146.073-.219.146-.292.146v-.439h-3.359c-.51 0-1.168.146-1.46.439v-.439h-5.987v.439c-.438-.366-1.242-.439-1.607-.439H25.75v.439c-.366-.366-1.242-.439-1.68-.439h-4.38l-1.023 1.096-.95-1.096h-.802l2.19 2.192L20.2 9.57h3.87c.95 0 2.044.292 2.044 1.68 0 1.462-1.022 1.754-2.117 1.754h-1.46V14.1l1.095 1.096V14.1h.365c.511 0 1.168 0 1.68-.22v1.974h3.285v-1.9h.146c.22 0 .22 0 .22.22v1.68h9.93c.656 0 1.314-.146 1.679-.439v.439h3.14c.584.073 1.24 0 1.752-.293zm-14.53-2.63c.146.22.219.512.219.95v1.023h-1.242v-.658c0-.292 0-.803-.219-1.023-.146-.219-.438-.219-.876-.219h-1.314v1.9h-1.241V9.716H29.4c.584 0 1.096 0 1.46.22.366.219.658.584.658 1.169 0 .803-.511 1.242-.877 1.388.366.146.585.292.658.438zm5.038-2.119h-2.848v.95h2.775v1.023h-2.775v1.023h2.848v1.096h-4.09V9.716h4.09v1.096zm3.066 4.092h-2.336v-1.096h2.336c.22 0 .366 0 .511-.146a.558.558 0 0 0 .147-.366.558.558 0 0 0-.147-.365c-.072-.073-.218-.146-.438-.146-1.168-.073-2.555 0-2.555-1.607 0-.731.438-1.535 1.752-1.535h2.41v1.242h-2.264c-.219 0-.365 0-.51.073-.147.073-.147.22-.147.366 0 .219.146.292.292.365.146.073.292.073.438.073h.657c.658 0 1.096.146 1.388.438.219.22.365.585.365 1.096 0 1.096-.657 1.608-1.899 1.608z" fill="#228FE0"/><path d="M42.908 11.325c0 .219.073.292.292.365.146.073.292.073.438.073h.658c.438 0 .73.073 1.022.22l-1.096-1.097h-.657c-.219 0-.365 0-.51.073a.558.558 0 0 0-.147.366zM40.353 6.94l.146.22h.073l-.22-.22zM36.337 2.921l1.242 2.996V4.163l-1.242-1.242z" fill="#228FE0"/><path d="M23.851 5.333h.146c.146 0 .146 0 .146.22V7.16H29.4V6.72c.438.22 1.096.439 1.972.439h2.19L34 5.99h1.023l.438 1.17h4.235v-.73l-1.023-1.024v.804h-2.482l-.365-1.169H33.27l-.438 1.169h-1.387c-.584 0-1.314-.146-1.753-.584-.438-.439-.657-1.023-.657-1.973 0-.73.146-1.461.657-2.046.366-.438 1.023-.584 1.826-.584h1.168v1.096h-1.168c-.438 0-.657.073-.95.292-.219.219-.365.657-.365 1.169 0 .584.073.95.366 1.242.219.219.51.292.876.292h.51l1.68-4.018h.73L33.343.073h-1.898c-.803 0-1.46.146-2.045.438V.073h-3.212V.51C25.823.22 25.384.073 24.8.073H13.045l-.803 1.826-.804-1.826H8.226l1.022 1.023h1.46l1.242 2.703.438.438 1.314-3.214h2.044V6.21h-1.24V2.192l-1.242 2.922 2.117 2.119h8.397l.073-1.9zm3.359-4.31h1.241V6.21H27.21V1.023zm-6.426 1.096h-2.847v.95h2.774V4.09h-2.774v1.023h2.847V6.21h-4.088V1.023h4.088v1.096zm2.045 4.018h-1.241V.95h2.774c.657 0 1.096 0 1.46.219.366.219.585.584.585 1.169 0 .803-.511 1.242-.877 1.388a.956.956 0 0 1 .585.438c.146.293.219.512.219.95v1.023h-1.242v-.658c0-.292 0-.73-.219-1.022-.073-.147-.292-.147-.73-.147H22.83v1.827z" fill="#228FE0"/></g></svg>
